X:1
T: Mrs. Horston of Rosehall's Favourite
C:Nathaniel Gow
R:Strathspey
Q: 128
K:Dm
M:4/4
L:1/16
|:E2|D2d2 d2d2 d3e f3d|c3A F2A2 GFED C3E|D2d2 d2d2 d^cde fefg|a2g2 f2e2 d4 D2E2|
D2d2 d2d2 d3e f3d|c3A F2A2 GFED C3E|D2d2 d2d2 d^cde fefg|a2g2 f2e2 d4 D2e2|
f3g a3g f3e d2e2|f3g fgaf gfed c2e2|f3g a3g f3e defg|a2g2 f2e2 d4 D2e2|
f3g a3g f3e d2e2|f3g fgaf gfed c2e2|fefg fgaf gfef egab|a2g2 f2e2 d4 D2:|
